icons/svg/sport/scuba_diving.svg

<?xml version="1.0" encoding="UTF-8" standalone="no"?>
<!-- Created with Inkscape (http://www.inkscape.org/) -->

<svg
   xmlns:dc="http://purl.org/dc/elements/1.1/"
   xmlns:cc="http://creativecommons.org/ns#"
   xmlns:rdf="http://www.w3.org/1999/02/22-rdf-syntax-ns#"
   xmlns:svg="http://www.w3.org/2000/svg"
   xmlns="http://www.w3.org/2000/svg"
   xmlns:sodipodi="http://sodipodi.sourceforge.net/DTD/sodipodi-0.dtd"
   xmlns:inkscape="http://www.inkscape.org/namespaces/inkscape"
   version="1.0"
   width="580"
   height="580"
   id="svg2"
   sodipodi:version="0.32"
   inkscape:version="0.48.4 r9939"
   sodipodi:docname="rugby_league.svg"
   inkscape:output_extension="org.inkscape.output.svg.inkscape">
  <metadata
     id="metadata2975">
    <rdf:RDF>
      <cc:Work
         rdf:about="">
        <dc:format>image/svg+xml</dc:format>
        <dc:type
           rdf:resource="http://purl.org/dc/dcmitype/StillImage" />
        <cc:license
           rdf:resource="http://web.resource.org/cc/PublicDomain" />
        <dc:language>en</dc:language>
        <dc:title></dc:title>
      </cc:Work>
    </rdf:RDF>
  </metadata>
  <sodipodi:namedview
     inkscape:window-height="1004"
     inkscape:window-width="1920"
     inkscape:pageshadow="2"
     inkscape:pageopacity="0.0"
     guidetolerance="10.0"
     gridtolerance="10.0"
     objecttolerance="10.0"
     borderopacity="1.0"
     bordercolor="#666666"
     pagecolor="#ffffff"
     id="base"
     inkscape:zoom="0.32586207"
     inkscape:cx="-414.97939"
     inkscape:cy="412.38046"
     inkscape:window-x="1680"
     inkscape:window-y="0"
     inkscape:current-layer="svg2"
     showgrid="false"
     inkscape:window-maximized="1" />
  <defs
     id="defs4">
    <inkscape:perspective
       sodipodi:type="inkscape:persp3d"
       inkscape:vp_x="0 : 290 : 1"
       inkscape:vp_y="0 : 1000 : 0"
       inkscape:vp_z="580 : 290 : 1"
       inkscape:persp3d-origin="290 : 193.33333 : 1"
       id="perspective10" />
  </defs>
  <g
     id="g1327">
    <path
       d="M 66.275,1.768 C 24.94,1.768 1.704,23.139 1.704,66.804 l 0,450.123 c 0,40.844 20.895,62.229 62.192,62.229 l 452.024,0 c 41.307,0 62.229,-20.315 62.229,-62.229 l 0,-450.123 c 0,-42.601 -20.922,-65.036 -63.521,-65.036 -0.004,0 -448.495,-0.143 -448.353,0 z"
       style="fill:#111111;stroke:#eeeeee;stroke-width:3.40799999"
       id="path1329"
       inkscape:connector-curvature="0" />
  </g>
  <polygon
     transform="translate(-3.05e-5,7.388065e-6)"
     style="fill:#ffffff"
     id="svg_4"
     points="140.81024,128.49803 111.44296,71.555649 23.94574,71.299622 108.38148,157.60928 " />
  <path
     style="fill:#ffffff"
     inkscape:connector-curvature="0"
     id="svg_5"
     d="m 404.58746,313.07459 c 15.96106,4.38519 33.10971,-4.6413 37.66376,-20.85297 4.38525,-15.96106 -4.93536,-32.72833 -21.02173,-37.23888 l -12.51282,-3.49179 -16.21707,58.00459 12.08783,3.57905 3e-5,0 z" />
  <path
     style="fill:#ffffff"
     inkscape:connector-curvature="0"
     id="svg_6"
     d="m 394.75476,247.78665 -101.0777,-28.47388 c -6.64053,-1.74321 -13.31906,2.25524 -15.14941,8.8957 l -9.4895,33.79061 c -1.8739,6.64051 1.74319,13.44983 8.55255,15.44904 l 101.07767,28.17426 16.08639,-57.83573 z" />
  <path
     style="fill:#ffffff"
     inkscape:connector-curvature="0"
     id="svg_7"
     d="m 410.71585,343.79822 c -7.70267,-7.32135 -17.27933,-13.15015 -28.47388,-16.21704 l -122.52444,-34.30268 0,0 -75.28398,-133.55014 c -3.96033,-6.8965 -10.33928,-12.38211 -18.59767,-14.64282 -16.51125,-4.64119 -33.66533,5.06616 -38.17583,21.57746 -2.25526,7.83345 -1.193,15.8303 2.38596,22.59606 l 94.18128,165.16721 c 0,0 7.70272,12.38208 27.11207,18.76654 l 171.21386,48.00305 79.41318,80.60621 c 2.6366,2.76727 6.08484,4.89178 10.21399,6.08483 11.95715,3.31751 24.46997,-3.82965 27.96179,-15.66149 2.25537,-8.38367 -0.42493,-17.19221 -6.3844,-22.63965 l -123.04193,-125.78754 0,0 z" />
  <path
     style="fill:#ffffff"
     inkscape:connector-curvature="0"
     id="svg_8"
     d="m 502.08621,377.164 17.79145,23.27704 36.17663,-39.49414 -30.55493,-17.02332 c 2.8927,-21.40857 -10.38281,-42.13067 -31.66058,-48.13385 -23.40775,-6.5097 -47.75247,7.06537 -54.26221,30.47315 -6.64047,23.53302 7.06534,47.75256 30.47311,54.26227 11.14008,3.1922 22.46537,1.44903 32.03653,-3.36109 l 0,-6e-5 z" />
</svg>

<svg width="580" height="580" viewBox="0 0 580 580" fill="none" xmlns="http://www.w3.org/2000/svg">
<g clip-path="url(#clip0)">
<path d="M66.2751 1.76815C24.9401 1.76815 1.7041 23.1391 1.7041 66.8041V516.927C1.7041 557.771 22.5991 579.156 63.8961 579.156H515.92C557.227 579.156 578.149 558.841 578.149 516.927V66.8041C578.149 24.2031 557.227 1.76815 514.628 1.76815C514.624 1.76815 66.1331 1.62515 66.2751 1.76815V1.76815Z" fill="#111111" stroke="#EEEEEE" stroke-width="3.408"/>
<path d="M140.81 128.498L111.443 71.5558L23.9458 71.2998L108.382 157.609L140.81 128.498Z" fill="white"/>
<path d="M404.587 313.074C420.548 317.46 437.697 308.433 442.251 292.221C446.636 276.26 437.316 259.493 421.229 254.983L408.717 251.491L392.5 309.495L404.587 313.074H404.587V313.074Z" fill="white"/>
<path d="M394.755 247.787L293.677 219.313C287.036 217.57 280.358 221.568 278.528 228.208L269.038 261.999C267.164 268.64 270.781 275.449 277.591 277.448L378.668 305.622L394.755 247.787Z" fill="white"/>
<path d="M410.716 343.798C403.013 336.477 393.436 330.648 382.242 327.581L259.717 293.278L184.433 159.728C180.473 152.832 174.094 147.346 165.836 145.085C149.325 140.444 132.17 150.152 127.66 166.663C125.405 174.496 126.467 182.493 130.046 189.259L224.227 354.426C224.227 354.426 231.93 366.808 251.339 373.193L422.553 421.196L501.966 501.802C504.603 504.569 508.051 506.694 512.18 507.887C524.137 511.204 536.65 504.057 540.142 492.225C542.397 483.842 539.717 475.033 533.758 469.586L410.716 343.798V343.798Z" fill="white"/>
<path d="M502.086 377.164L519.877 400.441L556.054 360.947L525.499 343.923C528.392 322.515 515.116 301.793 493.839 295.79C470.431 289.28 446.086 302.855 439.576 326.263C432.936 349.796 446.642 374.015 470.049 380.525C481.19 383.717 492.515 381.974 502.086 377.164V377.164V377.164Z" fill="white"/>
</g>
<defs>
<clipPath id="clip0">
<path d="M0 0H580V580H0V0Z" fill="white"/>
</clipPath>
</defs>
</svg>
